packages/vibrant-icons/assets/icons/Sparkle/Fill.svg

<svg width="24" height="24" viewBox="0 0 24 24" fill="none" xmlns="http://www.w3.org/2000/svg">
<path d="M5.27683 2.7476C5.47657 3.73103 6.74484 5.16095 7.50688 5.44852C7.63606 5.49727 7.75 5.61193 7.75 5.75C7.75 5.88807 7.63606 6.00273 7.50688 6.05148C6.74484 6.33905 5.47657 7.76897 5.27683 8.7524C5.24935 8.88771 5.13807 9 5 9C4.86193 9 4.75065 8.88771 4.72317 8.7524C4.52343 7.76897 3.25516 6.33905 2.49312 6.05148C2.36394 6.00273 2.25 5.88807 2.25 5.75C2.25 5.61193 2.36394 5.49727 2.49312 5.44852C3.25516 5.16095 4.52343 3.73103 4.72317 2.7476C4.75065 2.61229 4.86193 2.5 5 2.5C5.13807 2.5 5.24935 2.61229 5.27683 2.7476Z" fill="#0C0C0C"/>
<path d="M5.26112 14.7497C5.42591 16.6105 7.38631 18.2904 8.75124 18.4819C8.88797 18.501 9 18.6119 9 18.75C9 18.8881 8.88797 18.999 8.75124 19.0181C7.38631 19.2096 5.42591 20.8895 5.26112 22.7503C5.24894 22.8878 5.13807 23 5 23C4.86193 23 4.75106 22.8878 4.73888 22.7503C4.57409 20.8895 2.61369 19.2096 1.24876 19.0181C1.11203 18.999 1 18.8881 1 18.75C1 18.6119 1.11203 18.501 1.24876 18.4819C2.61369 18.2904 4.57409 16.6105 4.73888 14.7497C4.75106 14.6122 4.86193 14.5 5 14.5C5.13807 14.5 5.24894 14.6122 5.26112 14.7497Z" fill="#0C0C0C"/>
<path d="M15.0041 1.24987C15.1624 6.12169 19.898 11.0057 23.2511 11.2411C23.3888 11.2508 23.5 11.3619 23.5 11.5V12.0339C23.5 12.158 23.4103 12.2624 23.2884 12.2859C19.9335 12.9302 15.1634 17.3756 15.0041 22.2498C14.9996 22.3878 14.8881 22.5 14.75 22.5H14.25C14.1119 22.5 14.0004 22.3878 13.9959 22.2498C13.8366 17.3756 9.06653 12.9302 5.7116 12.2859C5.58973 12.2624 5.5 12.158 5.5 12.0339V11.5C5.5 11.3619 5.6112 11.2508 5.74893 11.2411C9.10197 11.0057 13.8376 6.12169 13.9959 1.24987C14.0004 1.11187 14.1119 1 14.25 1H14.75C14.8881 1 14.9996 1.11187 15.0041 1.24987Z" fill="#0C0C0C"/>
</svg>

<svg xmlns="http://www.w3.org/2000/svg" width="24" height="24" fill="none"><path fill="#0C0C0C" d="M5.277 2.748c.2.983 1.468 2.413 2.23 2.7.13.05.243.164.243.302s-.114.253-.243.301c-.762.288-2.03 1.718-2.23 2.701C5.249 8.888 5.138 9 5 9s-.25-.112-.277-.248c-.2-.983-1.468-2.413-2.23-2.7-.13-.05-.243-.164-.243-.302s.114-.253.243-.301c.762-.288 2.03-1.718 2.23-2.701.028-.136.139-.248.277-.248s.25.112.277.248M5.261 14.75c.165 1.86 2.125 3.54 3.49 3.732.137.019.249.13.249.268s-.112.249-.249.268c-1.365.192-3.325 1.872-3.49 3.732A.27.27 0 0 1 5 23a.27.27 0 0 1-.261-.25c-.165-1.86-2.125-3.54-3.49-3.732C1.112 19 1 18.888 1 18.75s.112-.249.249-.268c1.365-.192 3.325-1.872 3.49-3.732A.27.27 0 0 1 5 14.5c.138 0 .249.112.261.25M15.004 1.25c.158 4.872 4.894 9.756 8.247 9.991.138.01.249.12.249.259v.534c0 .124-.09.228-.212.252-3.355.644-8.125 5.09-8.284 9.964a.257.257 0 0 1-.254.25h-.5a.257.257 0 0 1-.254-.25c-.16-4.874-4.93-9.32-8.284-9.964a.26.26 0 0 1-.212-.252V11.5c0-.138.111-.25.249-.259 3.353-.235 8.089-5.12 8.247-9.991A.256.256 0 0 1 14.25 1h.5c.138 0 .25.112.254.25"/></svg>
